src/activities/magic-hat-plus/magic-hat-plus.svg

<?xml version="1.0" encoding="UTF-8" standalone="no"?>
<!-- Created with Inkscape (http://www.inkscape.org/) -->

<svg
   xmlns:dc="http://purl.org/dc/elements/1.1/"
   xmlns:cc="http://creativecommons.org/ns#"
   xmlns:rdf="http://www.w3.org/1999/02/22-rdf-syntax-ns#"
   xmlns:svg="http://www.w3.org/2000/svg"
   xmlns="http://www.w3.org/2000/svg"
   xmlns:sodipodi="http://sodipodi.sourceforge.net/DTD/sodipodi-0.dtd"
   xmlns:inkscape="http://www.inkscape.org/namespaces/inkscape"
   width="100"
   height="100"
   id="svg2"
   sodipodi:version="0.32"
   inkscape:version="0.91 r13725"
   version="1.0"
   sodipodi:docname="magic-hat-plus.svg">
  <defs
     id="defs4" />
  <sodipodi:namedview
     id="base"
     pagecolor="#ffffff"
     bordercolor="#666666"
     borderopacity="1.0"
     inkscape:pageopacity="0.0"
     inkscape:pageshadow="2"
     inkscape:zoom="3.1100436"
     inkscape:cx="11.305791"
     inkscape:cy="69.263829"
     inkscape:document-units="px"
     inkscape:current-layer="layer1"
     width="100px"
     height="100px"
     showguides="true"
     inkscape:guide-bbox="true"
     inkscape:window-width="1112"
     inkscape:window-height="949"
     inkscape:window-x="65"
     inkscape:window-y="0"
     showgrid="false"
     inkscape:window-maximized="0" />
  <metadata
     id="metadata7">
    <rdf:RDF>
      <cc:Work
         rdf:about="">
        <dc:format>image/svg+xml</dc:format>
        <dc:type
           rdf:resource="http://purl.org/dc/dcmitype/StillImage" />
        <dc:title></dc:title>
        <dc:date>2015</dc:date>
        <dc:creator>
          <cc:Agent>
            <dc:title>Timothée Giet</dc:title>
          </cc:Agent>
        </dc:creator>
        <cc:license
           rdf:resource="http://creativecommons.org/licenses/by-sa/4.0/" />
      </cc:Work>
      <cc:License
         rdf:about="http://creativecommons.org/licenses/by-sa/4.0/">
        <cc:permits
           rdf:resource="http://creativecommons.org/ns#Reproduction" />
        <cc:permits
           rdf:resource="http://creativecommons.org/ns#Distribution" />
        <cc:requires
           rdf:resource="http://creativecommons.org/ns#Notice" />
        <cc:requires
           rdf:resource="http://creativecommons.org/ns#Attribution" />
        <cc:permits
           rdf:resource="http://creativecommons.org/ns#DerivativeWorks" />
        <cc:requires
           rdf:resource="http://creativecommons.org/ns#ShareAlike" />
      </cc:License>
    </rdf:RDF>
  </metadata>
  <g
     inkscape:label="Calque 1"
     inkscape:groupmode="layer"
     id="layer1">
    <path
       style="fill:#7e27b2;fill-opacity:1;fill-rule:evenodd;stroke:none;stroke-width:1px;stroke-linecap:butt;stroke-linejoin:miter;stroke-opacity:1"
       d="m 49.145972,8.895251 c -12.125484,25.14218 -20.682878,53.785475 -32.123647,79.158345 6.376632,7.257946 15.582103,10.492564 31.696613,10.492564 16.114511,0 30.633139,-4.507581 38.07733,-10.833031 C 76.462714,60.43414 62.814511,34.826533 49.145972,8.895251 Z"
       id="path10968-6"
       inkscape:connector-curvature="0"
       sodipodi:nodetypes="cczcc" />
    <path
       style="fill:#b356ec;fill-opacity:1;fill-rule:evenodd;stroke:none;stroke-width:1px;stroke-linecap:butt;stroke-linejoin:miter;stroke-opacity:1"
       d="M 49.176216,11.467562 C 37.888899,35.212047 29.92303,62.26301 19.273098,86.225357 c 5.935851,6.854464 14.504999,9.909262 29.505603,9.909262 15.000604,0 28.515641,-4.256995 35.445256,-10.230801 C 74.604704,60.141316 61.899925,35.957281 49.176216,11.467562 Z"
       id="path10968"
       inkscape:connector-curvature="0"
       sodipodi:nodetypes="cczcc" />
    <path
       sodipodi:type="star"
       style="opacity:1;fill:#f6e18b;fill-opacity:1;fill-rule:evenodd;stroke:none;stroke-width:2.5;stroke-linecap:butt;stroke-linejoin:bevel;stroke-miterlimit:4;stroke-dasharray:none;stroke-dashoffset:0;stroke-opacity:1"
       id="path11857-7"
       sodipodi:sides="5"
       sodipodi:cx="-8.8423195"
       sodipodi:cy="38.10376"
       sodipodi:r1="12.642655"
       sodipodi:r2="6.3213272"
       sodipodi:arg1="1.4432868"
       sodipodi:arg2="2.0716053"
       inkscape:flatsided="false"
       inkscape:rounded="0"
       inkscape:randomized="0"
       d="m -7.2346253,50.643778 -4.6427867,-6.994985 -8.394369,-0.140946 5.217927,-6.577122 -2.459955,-8.027074 7.8676423,2.9301 6.874033,-4.820058 -0.3554558,8.388023 6.7083408,5.048114 -8.0873261,2.253984 z"
       transform="matrix(0.97978041,0,0,0.98604731,61.934909,26.234527)" />
    <path
       sodipodi:type="star"
       style="opacity:1;fill:#f3d351;fill-opacity:1;fill-rule:evenodd;stroke:none;stroke-width:2.5;stroke-linecap:butt;stroke-linejoin:bevel;stroke-miterlimit:4;stroke-dasharray:none;stroke-dashoffset:0;stroke-opacity:1"
       id="path11857"
       sodipodi:sides="5"
       sodipodi:cx="-8.8423195"
       sodipodi:cy="38.10376"
       sodipodi:r1="12.642655"
       sodipodi:r2="6.3213272"
       sodipodi:arg1="1.4432868"
       sodipodi:arg2="2.0716053"
       inkscape:flatsided="false"
       inkscape:rounded="0"
       inkscape:randomized="0"
       d="m -7.2346253,50.643778 -4.6427867,-6.994985 -8.394369,-0.140946 5.217927,-6.577122 -2.459955,-8.027074 7.8676423,2.9301 6.874033,-4.820058 -0.3554558,8.388023 6.7083408,5.048114 -8.0873261,2.253984 z"
       transform="matrix(0.865198,0,0,0.870732,60.97866,30.712075)" />
    <path
       style="opacity:1;fill:#f6e18b;fill-opacity:1;fill-rule:evenodd;stroke:none;stroke-width:2.5;stroke-linecap:butt;stroke-linejoin:bevel;stroke-miterlimit:4;stroke-dasharray:none;stroke-dashoffset:0;stroke-opacity:1"
       d="m 52.654617,25.675906 4.33152,9.766909 -5.76437,7.027542 7.912208,-1.369469 5.889254,9.44729 0.12339,-7.749482 -6.443244,-12.84349 z"
       id="path11864-35"
       sodipodi:nodetypes="cccccccc"
       inkscape:connector-curvature="0" />
    <path
       style="opacity:1;fill:#f3d351;fill-opacity:1;fill-rule:evenodd;stroke:none;stroke-width:2.5;stroke-linecap:butt;stroke-linejoin:bevel;stroke-miterlimit:4;stroke-dasharray:none;stroke-dashoffset:0;stroke-opacity:1"
       d="m 54.298475,27.605138 3.547574,7.999231 -4.721097,5.755652 6.480205,-1.121614 4.823379,7.737459 0.101058,-6.346931 -5.277104,-10.518992 z"
       id="path11864"
       sodipodi:nodetypes="cccccccc"
       inkscape:connector-curvature="0" />
    <path
       inkscape:connector-curvature="0"
       style="opacity:1;fill:#f6e18b;fill-opacity:1;fill-rule:evenodd;stroke:none;stroke-width:2.5;stroke-linecap:butt;stroke-linejoin:bevel;stroke-miterlimit:4;stroke-dasharray:none;stroke-dashoffset:0;stroke-opacity:1"
       d="m 34.190438,61.447109 -4.275525,9.640646 5.689851,6.936694 -7.809922,-1.351766 -5.81312,9.32516 0.07196,-6.777386 5.488033,-13.16185 z"
       id="path11864-3-5"
       sodipodi:nodetypes="cccccccc" />
    <path
       inkscape:connector-curvature="0"
       style="opacity:1;fill:#f3d351;fill-opacity:1;fill-rule:evenodd;stroke:none;stroke-width:2.5;stroke-linecap:butt;stroke-linejoin:bevel;stroke-miterlimit:4;stroke-dasharray:none;stroke-dashoffset:0;stroke-opacity:1"
       d="m 32.708817,63.295957 -3.547574,7.999231 4.721097,5.755652 -6.480205,-1.121614 -4.823379,7.737459 0.05971,-5.623469 4.553642,-10.920915 z"
       id="path11864-3"
       sodipodi:nodetypes="cccccccc" />
    <path
       style="display:inline;fill:#8d2626;fill-opacity:1;fill-rule:evenodd;stroke:none;stroke-width:1px;stroke-linecap:butt;stroke-linejoin:miter;stroke-opacity:1"
       d="m 11.015687,25.110362 c -1.5263811,0.756055 -1.4868089,4.663811 -1.072553,5.147183 0.414256,0.483372 19.971756,0.63278 20.621051,0.369122 0.649294,-0.263662 1.275937,-4.871809 0.858743,-5.246789 -0.417194,-0.374981 -20.407241,-0.269516 -20.407241,-0.269516 z"
       id="path4404-0-9"
       inkscape:connector-curvature="0"
       sodipodi:nodetypes="sssss" />
    <path
       style="display:inline;fill:#8d2626;fill-opacity:1;fill-rule:evenodd;stroke:none;stroke-width:1px;stroke-linecap:butt;stroke-linejoin:miter;stroke-opacity:1"
       d="m 17.811493,37.537719 c 0.756055,1.526381 4.66381,1.486809 5.147182,1.072553 0.483372,-0.414256 0.63278,-19.971756 0.369122,-20.621051 -0.263662,-0.649294 -4.871808,-1.275937 -5.246788,-0.858743 -0.374981,0.417194 -0.269516,20.407241 -0.269516,20.407241 z"
       id="path4404-0-9-7"
       inkscape:connector-curvature="0"
       sodipodi:nodetypes="sssss" />
    <path
       style="display:inline;fill:#e63232;fill-opacity:1;fill-rule:evenodd;stroke:none;stroke-width:1px;stroke-linecap:butt;stroke-linejoin:miter;stroke-opacity:1"
       d="M 19.410156 18.326172 C 19.058722 18.345741 18.801766 18.398455 18.734375 18.490234 C 18.618983 18.647384 18.572636 22.097526 18.550781 25.835938 C 15.562788 25.835687 12.105469 25.837891 12.105469 25.837891 C 10.762299 26.381405 10.934295 29.191577 11.298828 29.539062 C 11.453807 29.686793 14.830657 29.781317 18.537109 29.837891 C 18.536295 32.935783 18.539062 36.447266 18.539062 36.447266 C 19.082576 37.790436 21.892748 37.620392 22.240234 37.255859 C 22.389898 37.098853 22.484969 33.646025 22.541016 29.878906 C 26.122543 29.897786 29.37759 29.882873 29.613281 29.804688 C 30.184641 29.61515 30.429619 26.302767 30.0625 26.033203 C 29.903312 25.916315 26.379643 25.869005 22.582031 25.847656 C 22.599134 22.3397 22.582788 19.173307 22.505859 18.941406 C 22.363706 18.512886 20.46446 18.267465 19.410156 18.326172 z "
       id="path4404-3" />
  </g>
</svg>

<!--Created with Inkscape (http://www.inkscape.org/)--><svg xmlns:dc="http://purl.org/dc/elements/1.1/" xmlns:cc="http://creativecommons.org/ns#" xmlns:rdf="http://www.w3.org/1999/02/22-rdf-syntax-ns#" xmlns="http://www.w3.org/2000/svg" xmlns:sodipodi="http://sodipodi.sourceforge.net/DTD/sodipodi-0.dtd" xmlns:inkscape="http://www.inkscape.org/namespaces/inkscape" width="100" height="100" sodipodi:version="0.32" inkscape:version="0.91 r13725" version="1.0" sodipodi:docname="magic-hat-plus.svg"><sodipodi:namedview pagecolor="#ffffff" bordercolor="#666666" borderopacity="1.0" inkscape:pageopacity="0.0" inkscape:pageshadow="2" inkscape:zoom="3.1100436" inkscape:cx="11.305791" inkscape:cy="69.263829" inkscape:document-units="px" inkscape:current-layer="layer1" width="100px" height="100px" showguides="true" inkscape:guide-bbox="true" inkscape:window-width="1112" inkscape:window-height="949" inkscape:window-x="65" inkscape:window-y="0" showgrid="false" inkscape:window-maximized="0"/><metadata><rdf:RDF><cc:Work><dc:format>image/svg+xml</dc:format><dc:type rdf:resource="http://purl.org/dc/dcmitype/StillImage"/><dc:title/><dc:date>2015</dc:date><dc:creator><cc:Agent><dc:title>Timothée Giet</dc:title></cc:Agent></dc:creator><cc:license rdf:resource="http://creativecommons.org/licenses/by-sa/4.0/"/></cc:Work><cc:License rdf:about="http://creativecommons.org/licenses/by-sa/4.0/"><cc:permits rdf:resource="http://creativecommons.org/ns#Reproduction"/><cc:permits rdf:resource="http://creativecommons.org/ns#Distribution"/><cc:requires rdf:resource="http://creativecommons.org/ns#Notice"/><cc:requires rdf:resource="http://creativecommons.org/ns#Attribution"/><cc:permits rdf:resource="http://creativecommons.org/ns#DerivativeWorks"/><cc:requires rdf:resource="http://creativecommons.org/ns#ShareAlike"/></cc:License></rdf:RDF></metadata><g inkscape:label="Calque 1" inkscape:groupmode="layer"><path style="fill:#7e27b2;fill-opacity:1;fill-rule:evenodd;stroke:none;stroke-width:1px;stroke-linecap:butt;stroke-linejoin:miter;stroke-opacity:1" d="M49.146 8.895C37.02 34.037 28.463 62.681 17.022 88.054 23.4 95.312 32.604 98.546 48.72 98.546c16.114 0 30.633-4.507 38.077-10.833-10.333-27.279-23.981-52.886-37.65-78.818z" inkscape:connector-curvature="0" sodipodi:nodetypes="cczcc"/><path style="fill:#b356ec;fill-opacity:1;fill-rule:evenodd;stroke:none;stroke-width:1px;stroke-linecap:butt;stroke-linejoin:miter;stroke-opacity:1" d="M49.176 11.468C37.89 35.212 29.923 62.263 19.273 86.225c5.936 6.855 14.505 9.91 29.506 9.91 15 0 28.515-4.257 35.445-10.231C74.604 60.14 61.9 35.957 49.176 11.468z" inkscape:connector-curvature="0" sodipodi:nodetypes="cczcc"/><path sodipodi:type="star" style="opacity:1;fill:#f6e18b;fill-opacity:1;fill-rule:evenodd;stroke:none;stroke-width:2.5;stroke-linecap:butt;stroke-linejoin:bevel;stroke-miterlimit:4;stroke-dasharray:none;stroke-dashoffset:0;stroke-opacity:1" sodipodi:sides="5" sodipodi:cx="-8.8423195" sodipodi:cy="38.10376" sodipodi:r1="12.642655" sodipodi:r2="6.3213272" sodipodi:arg1="1.4432868" sodipodi:arg2="2.0716053" inkscape:flatsided="false" inkscape:rounded="0" inkscape:randomized="0" d="m-7.235 50.644-4.642-6.995-8.395-.141 5.218-6.577-2.46-8.027 7.868 2.93 6.874-4.82-.356 8.388 6.709 5.048-8.088 2.254z" transform="matrix(.97978 0 0 .98605 61.935 26.235)"/><path sodipodi:type="star" style="opacity:1;fill:#f3d351;fill-opacity:1;fill-rule:evenodd;stroke:none;stroke-width:2.5;stroke-linecap:butt;stroke-linejoin:bevel;stroke-miterlimit:4;stroke-dasharray:none;stroke-dashoffset:0;stroke-opacity:1" sodipodi:sides="5" sodipodi:cx="-8.8423195" sodipodi:cy="38.10376" sodipodi:r1="12.642655" sodipodi:r2="6.3213272" sodipodi:arg1="1.4432868" sodipodi:arg2="2.0716053" inkscape:flatsided="false" inkscape:rounded="0" inkscape:randomized="0" d="m-7.235 50.644-4.642-6.995-8.395-.141 5.218-6.577-2.46-8.027 7.868 2.93 6.874-4.82-.356 8.388 6.709 5.048-8.088 2.254z" transform="matrix(.8652 0 0 .87073 60.979 30.712)"/><path style="opacity:1;fill:#f6e18b;fill-opacity:1;fill-rule:evenodd;stroke:none;stroke-width:2.5;stroke-linecap:butt;stroke-linejoin:bevel;stroke-miterlimit:4;stroke-dasharray:none;stroke-dashoffset:0;stroke-opacity:1" d="m52.655 25.676 4.331 9.767-5.764 7.027 7.912-1.37 5.89 9.448.123-7.75-6.444-12.843z" sodipodi:nodetypes="cccccccc" inkscape:connector-curvature="0"/><path style="opacity:1;fill:#f3d351;fill-opacity:1;fill-rule:evenodd;stroke:none;stroke-width:2.5;stroke-linecap:butt;stroke-linejoin:bevel;stroke-miterlimit:4;stroke-dasharray:none;stroke-dashoffset:0;stroke-opacity:1" d="m54.298 27.605 3.548 8-4.721 5.755 6.48-1.122 4.824 7.738.1-6.347-5.277-10.52z" sodipodi:nodetypes="cccccccc" inkscape:connector-curvature="0"/><path inkscape:connector-curvature="0" style="opacity:1;fill:#f6e18b;fill-opacity:1;fill-rule:evenodd;stroke:none;stroke-width:2.5;stroke-linecap:butt;stroke-linejoin:bevel;stroke-miterlimit:4;stroke-dasharray:none;stroke-dashoffset:0;stroke-opacity:1" d="m34.19 61.447-4.275 9.64 5.69 6.937-7.81-1.351-5.813 9.325.072-6.778 5.488-13.161z" sodipodi:nodetypes="cccccccc"/><path inkscape:connector-curvature="0" style="opacity:1;fill:#f3d351;fill-opacity:1;fill-rule:evenodd;stroke:none;stroke-width:2.5;stroke-linecap:butt;stroke-linejoin:bevel;stroke-miterlimit:4;stroke-dasharray:none;stroke-dashoffset:0;stroke-opacity:1" d="m32.709 63.296-3.548 8 4.721 5.755-6.48-1.122-4.823 7.738.06-5.624 4.553-10.92z" sodipodi:nodetypes="cccccccc"/><path style="display:inline;fill:#8d2626;fill-opacity:1;fill-rule:evenodd;stroke:none;stroke-width:1px;stroke-linecap:butt;stroke-linejoin:miter;stroke-opacity:1" d="M11.016 25.11c-1.527.756-1.487 4.664-1.073 5.148.414.483 19.972.632 20.621.369.65-.264 1.276-4.872.859-5.247-.417-.375-20.407-.27-20.407-.27z" inkscape:connector-curvature="0" sodipodi:nodetypes="sssss"/><path style="display:inline;fill:#8d2626;fill-opacity:1;fill-rule:evenodd;stroke:none;stroke-width:1px;stroke-linecap:butt;stroke-linejoin:miter;stroke-opacity:1" d="M17.811 37.538c.757 1.526 4.664 1.487 5.148 1.072.483-.414.632-19.971.369-20.62-.264-.65-4.872-1.277-5.247-.86-.375.418-.27 20.408-.27 20.408z" inkscape:connector-curvature="0" sodipodi:nodetypes="sssss"/><path style="display:inline;fill:#e63232;fill-opacity:1;fill-rule:evenodd;stroke:none;stroke-width:1px;stroke-linecap:butt;stroke-linejoin:miter;stroke-opacity:1" d="M19.41 18.326c-.351.02-.608.072-.676.164-.115.157-.161 3.608-.183 7.346l-6.446.002c-1.343.543-1.17 3.354-.806 3.701.155.148 3.532.242 7.238.299l.002 6.61c.544 1.342 3.354 1.172 3.701.808.15-.157.245-3.61.301-7.377 3.582.019 6.837.004 7.072-.074.572-.19.817-3.502.45-3.772-.16-.117-3.683-.164-7.481-.185.017-3.508 0-6.675-.076-6.907-.142-.428-2.042-.674-3.096-.615z"/></g></svg>
